app/dist/common/images/shanghai-datun-energy-resourses-coltd.svg

<svg height="18" viewBox="0 0 18 18" width="18" xmlns="http://www.w3.org/2000/svg"><path d="m0 0h18v18h-18z" fill="#f0f3fa"/><path d="m7 4h4v1h.02a4 4 0 0 1 3.98 3.6h-2.95a2 2 0 0 0 -1.05-1.38v1.42h-1.5v-1.64h-1v4h1v-1.64h1.5v1.42a2 2 0 0 0 1.05-1.38h2.95a4 4 0 0 1 -3.98 3.6h-.02v1h-4v-1a4 4 0 0 1 0-8zm0 6.77v-3.54a2 2 0 0 0 0 3.54z" fill="#0186d1"/></svg>

<!-- by TradingView --><svg width="18" height="18" viewBox="0 0 18 18" xmlns="http://www.w3.org/2000/svg"><path fill="#F0F3FA" d="M0 0h18v18H0z"/><path d="M7 4h4v1h.02A4 4 0 0 1 15 8.6h-2.95A2 2 0 0 0 11 7.22v1.42H9.5V7h-1v4h1V9.36H11v1.42a2 2 0 0 0 1.05-1.38H15a4 4 0 0 1-3.98 3.6H11v1H7v-1a4 4 0 0 1 0-8V4Zm0 6.77V7.23a2 2 0 0 0 0 3.54Z" fill="#0186D1"/></svg>
